packages/core/src/svgs/tokens/branded/SCAR.svg

<svg width="24" height="24" viewBox="0 0 24 24" fill="none" xmlns="http://www.w3.org/2000/svg">
<path d="M12 21.4117C14.4961 21.4117 16.8901 20.4202 18.6551 18.6551C20.4202 16.89 21.4117 14.4961 21.4117 12C21.4117 9.50377 20.4202 7.10991 18.6551 5.34487C16.8901 3.57982 14.4961 2.58823 12 2.58823C9.5039 2.58823 7.10991 3.57982 5.34487 5.34487C3.57983 7.10991 2.58823 9.50377 2.58823 12C2.58823 14.4961 3.57983 16.89 5.34487 18.6551C7.10991 20.4202 9.5039 21.4117 12 21.4117ZM12 22C14.6522 22 17.1957 20.9464 19.0711 19.071C20.9464 17.1957 22 14.6522 22 12C22 9.34785 20.9464 6.80429 19.0711 4.92892C17.1957 3.05357 14.6522 2 12 2C9.34784 2 6.80429 3.05357 4.92892 4.92892C3.05357 6.80429 2 9.34785 2 12C2 14.6522 3.05357 17.1957 4.92892 19.071C6.80429 20.9464 9.34784 22 12 22Z" fill="#8C8B8A"/>
<path d="M11.9996 21.412C17.1976 21.412 21.4115 17.1982 21.4115 12.0002C21.4115 6.80222 17.1976 2.58844 11.9996 2.58844C6.80168 2.58844 2.58789 6.80222 2.58789 12.0002C2.58789 17.1982 6.80168 21.412 11.9996 21.412Z" fill="url(#paint0_linear_364_5688)"/>
<path fill-rule="evenodd" clip-rule="evenodd" d="M8.47145 6.11734C7.76556 6.11734 7.39498 5.33498 7.29499 4.94086L9.64788 5.5291C9.54795 5.72321 9.17734 6.11734 8.47145 6.11734ZM15.5302 6.11734C15.0597 6.11734 14.5479 5.72321 14.3538 5.5291L16.7068 4.94086C16.5127 5.33498 16.0009 6.11734 15.5302 6.11734ZM9.05968 7.2938C7.17733 7.2938 5.9244 9.25262 5.53027 10.235C6.23616 9.52911 7.58909 8.95851 8.17733 8.76439C7.00086 9.47022 6.70675 11.9997 6.70675 13.1761L8.47145 15.5291V12.588C8.47145 12.2938 8.47145 10.8231 12.0008 10.8231C14.8244 10.8231 15.5302 11.9997 15.5302 12.588V15.5291L17.295 13.1761C17.295 11.0585 16.3126 9.3526 15.8243 8.76439C16.7655 8.76439 17.9832 9.74679 18.4714 10.235C18.2362 8.11733 15.8243 7.39381 14.6479 7.2938H12.5891V7.88204C12.5891 8.11733 12.1949 8.37028 12.0008 8.47027C11.7656 8.47027 11.5126 8.07616 11.4126 7.88204V7.2938H9.05968ZM10.2361 11.9997C9.84209 11.9997 9.05968 12.1173 9.05968 12.588H14.9421C14.9421 12.3938 14.7067 11.9997 13.7655 11.9997H10.2361ZM13.7655 13.4702H9.94201C10.3362 13.2762 11.2949 12.882 12.0008 12.882C12.7067 12.882 13.4714 13.2762 13.7655 13.4702ZM12.0008 19.6467L9.05968 14.0585H10.2361L12.0008 17.5879L13.7655 14.0585H14.9421L12.0008 19.6467ZM8.76557 9.64673L8.79497 9.57028C8.94792 9.39377 9.59503 9.3526 9.94201 9.3526C10.3362 9.64673 11.2949 10.235 12.0008 10.235C12.7067 10.235 13.6656 9.64673 14.0597 9.3526L14.9421 9.64673C14.7067 8.94086 14.0597 8.17616 13.7655 7.88204C13.5714 8.47027 12.942 9.64673 12.0008 9.64673C11.0597 9.64673 10.4302 8.47027 10.2361 7.88204C9.56552 8.10557 9.01851 9.0585 8.79497 9.57028C8.77633 9.59142 8.76589 9.6186 8.76557 9.64673Z" fill="url(#paint1_linear_364_5688)"/>
<defs>
<linearGradient id="paint0_linear_364_5688" x1="17.8819" y1="5.2355" x2="6.1173" y2="19.0591" gradientUnits="userSpaceOnUse">
<stop stop-color="#878585"/>
<stop offset="1" stop-color="#010101"/>
</linearGradient>
<linearGradient id="paint1_linear_364_5688" x1="15.2362" y1="4.94086" x2="2.29499" y2="13.7644" gradientUnits="userSpaceOnUse">
<stop stop-color="#FDFCFD"/>
<stop offset="1" stop-color="#5C5B5A"/>
</linearGradient>
</defs>
</svg>

<svg xmlns="http://www.w3.org/2000/svg" width="24" height="24" fill="none" viewBox="0 0 24 24">
    <path fill="#8C8B8A" d="M12 21.412a9.411 9.411 0 1 0 0-18.823 9.411 9.411 0 0 0 0 18.823M12 22a10 10 0 1 0 0-20 10 10 0 0 0 0 20"/>
    <path fill="url(#SCAR__a)" d="M12 21.412a9.412 9.412 0 1 0 0-18.824 9.412 9.412 0 0 0 0 18.824"/>
    <path fill="url(#SCAR__b)" fill-rule="evenodd" d="M8.471 6.117c-.705 0-1.076-.782-1.176-1.176l2.353.588c-.1.194-.47.588-1.177.588m7.06 0c-.471 0-.983-.394-1.177-.588l2.353-.588c-.194.394-.706 1.176-1.177 1.176M9.06 7.294c-1.883 0-3.136 1.959-3.53 2.941.706-.706 2.06-1.276 2.647-1.47-1.176.705-1.47 3.235-1.47 4.411L8.47 15.53v-2.941c0-.294 0-1.765 3.53-1.765 2.823 0 3.53 1.177 3.53 1.765v2.941l1.764-2.353c0-2.117-.982-3.823-1.47-4.412.94 0 2.158.983 2.646 1.471-.235-2.118-2.647-2.841-3.823-2.941h-2.059v.588c0 .235-.394.488-.588.588-.235 0-.488-.394-.588-.588v-.588zM10.236 12c-.394 0-1.176.117-1.176.588h5.882c0-.194-.235-.588-1.177-.588zm3.53 1.47H9.942c.394-.194 1.353-.588 2.059-.588s1.47.394 1.765.588M12 19.647l-2.94-5.588h1.176l1.765 3.529 1.765-3.53h1.176zm-3.235-10 .029-.077c.153-.176.8-.217 1.147-.217.394.294 1.353.882 2.059.882s1.665-.588 2.059-.882l.882.294c-.235-.706-.882-1.47-1.177-1.765-.194.588-.823 1.765-1.764 1.765s-1.57-1.177-1.765-1.765c-.67.224-1.217 1.177-1.441 1.688a.12.12 0 0 0-.03.077" clip-rule="evenodd"/>
    <defs>
        <linearGradient id="SCAR__a" x1="17.882" x2="6.117" y1="5.236" y2="19.059" gradientUnits="userSpaceOnUse">
            <stop stop-color="#878585"/>
            <stop offset="1" stop-color="#010101"/>
        </linearGradient>
        <linearGradient id="SCAR__b" x1="15.236" x2="2.295" y1="4.941" y2="13.764" gradientUnits="userSpaceOnUse">
            <stop stop-color="#FDFCFD"/>
            <stop offset="1" stop-color="#5C5B5A"/>
        </linearGradient>
    </defs>
</svg>
